public/icons/tech-stack/antdesign.svg

<svg width="70" height="70" viewBox="0 0 70 70" fill="none" xmlns="http://www.w3.org/2000/svg">
<g clip-path="url(#clip0_34_384)">
<path d="M31.9512 1.24304L1.23874 31.9309C0.846231 32.322 0.534793 32.7868 0.322289 33.2985C0.109785 33.8103 0.000396729 34.3589 0.000396729 34.913C0.000396729 35.4671 0.109785 36.0158 0.322289 36.5275C0.534793 37.0393 0.846231 37.504 1.23874 37.8951L31.9512 68.5828C33.6025 70.2324 36.2694 70.2324 37.9204 68.5828L50.7979 55.7159C52.2767 54.2382 52.2767 51.8426 50.7979 50.3653C49.3192 48.8876 46.9217 48.8876 45.4429 50.3653L35.6807 60.1193C35.2697 60.53 34.646 60.53 34.235 60.1193L9.70874 35.6133C9.29776 35.2026 9.29776 34.5794 9.70874 34.1687L34.235 9.66245C34.646 9.25202 35.2697 9.25202 35.6807 9.66245L45.4429 19.4168C46.9217 20.8944 49.3192 20.8944 50.7979 19.4168C52.2767 17.9391 52.2767 15.5438 50.7979 14.0662L37.9217 1.20093C36.2639 -0.413447 33.596 -0.400322 31.9512 1.24304Z" fill="url(#paint0_linear_34_384)"/>
<path d="M31.9512 1.24283L1.23874 31.9307C0.846231 32.3218 0.534793 32.7866 0.322289 33.2983C0.109785 33.8101 0.000396729 34.3587 0.000396729 34.9128C0.000396729 35.4669 0.109785 36.0156 0.322289 36.5273C0.534793 37.0391 0.846231 37.5038 1.23874 37.8949L31.9512 68.5826C33.6025 70.2322 36.2694 70.2322 37.9204 68.5826L50.7979 55.7157C52.2767 54.238 52.2767 51.8424 50.7979 50.3651C49.3192 48.8874 46.9217 48.8874 45.4429 50.3651L35.6807 60.1191C35.2697 60.5298 34.646 60.5298 34.235 60.1191L9.70874 35.6131C9.29776 35.2024 9.29776 34.5792 9.70874 34.1685L34.235 9.66224C35.2582 8.78013 36.9281 6.99349 39.3797 6.57513C41.2019 6.26478 43.1942 6.94837 45.3562 8.62591L37.922 1.20045C36.2639 -0.413656 33.5962 -0.400531 31.9512 1.24283Z" fill="url(#paint1_linear_34_384)"/>
<path d="M53.7707 47.511C55.2494 48.9887 57.6469 48.9887 59.1257 47.511L68.6246 38.02C69.0171 37.6289 69.3286 37.1641 69.5411 36.6524C69.7536 36.1406 69.863 35.592 69.863 35.0379C69.863 34.4838 69.7536 33.9351 69.5411 33.4234C69.3286 32.9116 69.0171 32.4469 68.6246 32.0558L59.0431 22.5155C57.5608 21.0398 55.1625 21.042 53.6829 22.5205C52.2041 23.9981 52.2041 26.3934 53.6829 27.8711L60.1543 34.3373C60.5653 34.748 60.5653 35.3712 60.1543 35.7819L53.7707 42.1604C52.2919 43.638 52.2919 46.0336 53.7707 47.511Z" fill="url(#paint2_linear_34_384)"/>
<path d="M35.0894 43.3519C39.6693 43.3519 43.382 39.6423 43.382 35.0662C43.382 30.4902 39.6693 26.7805 35.0894 26.7805C30.5096 26.7805 26.7969 30.4902 26.7969 35.0662C26.7969 39.6423 30.5096 43.3519 35.0894 43.3519Z" fill="url(#paint3_linear_34_384)"/>
</g>
<defs>
<linearGradient id="paint0_linear_34_384" x1="3223.5" y1="0.00030404" x2="6142.12" y2="1782.35" gradientUnits="userSpaceOnUse">
<stop stop-color="#4285EB"/>
<stop offset="1" stop-color="#2EC7FF"/>
</linearGradient>
<linearGradient id="paint1_linear_34_384" x1="3614.98" y1="6.227e-05" x2="2173.47" y2="7450.21" gradientUnits="userSpaceOnUse">
<stop stop-color="#29CDFF"/>
<stop offset="0.3786" stop-color="#148EFF"/>
<stop offset="1" stop-color="#0A60FF"/>
</linearGradient>
<linearGradient id="paint2_linear_34_384" x1="1257.47" y1="-331.6" x2="-618.19" y2="2601.73" gradientUnits="userSpaceOnUse">
<stop stop-color="#FA816E"/>
<stop offset="0.41473" stop-color="#F74A5C"/>
<stop offset="1" stop-color="#F51D2C"/>
</linearGradient>
<linearGradient id="paint3_linear_34_384" x1="1156.71" y1="-564.67" x2="532.616" y2="1931.79" gradientUnits="userSpaceOnUse">
<stop stop-color="#FA8E7D"/>
<stop offset="0.51264" stop-color="#F74A5C"/>
<stop offset="1" stop-color="#F51D2C"/>
</linearGradient>
<clipPath id="clip0_34_384">
<rect width="70" height="70" fill="white"/>
</clipPath>
</defs>
</svg>

<svg xmlns="http://www.w3.org/2000/svg" width="70" height="70" fill="none" xmlns:v="https://vecta.io/nano"><g clip-path="url(#E)"><path d="M31.951 1.243L1.239 31.931A4.21 4.21 0 0 0 0 34.913a4.21 4.21 0 0 0 1.238 2.982l30.712 30.688a4.22 4.22 0 0 0 5.969 0l12.877-12.867a3.78 3.78 0 0 0 0-5.351 3.79 3.79 0 0 0-5.355 0l-9.762 9.754a1 1 0 0 1-1.446 0L9.709 35.613a1 1 0 0 1 0-1.445L34.235 9.662a1 1 0 0 1 1.446 0l9.762 9.754a3.79 3.79 0 0 0 5.355 0 3.78 3.78 0 0 0 0-5.351L37.922 1.201a4.26 4.26 0 0 0-5.971.042z" fill="url(#A)"/><path d="M31.951 1.243L1.239 31.931A4.21 4.21 0 0 0 0 34.913a4.21 4.21 0 0 0 1.238 2.982l30.712 30.688a4.22 4.22 0 0 0 5.969 0l12.877-12.867a3.78 3.78 0 0 0 0-5.351 3.79 3.79 0 0 0-5.355 0l-9.762 9.754a1 1 0 0 1-1.446 0L9.709 35.613a1 1 0 0 1 0-1.445L34.235 9.662c1.023-.882 2.693-2.669 5.145-3.087 1.822-.31 3.815.373 5.977 2.051L37.922 1.2a4.26 4.26 0 0 0-5.971.042z" fill="url(#B)"/><path d="M53.771 47.511a3.79 3.79 0 0 0 5.355 0l9.499-9.491a4.21 4.21 0 0 0 1.238-2.982 4.21 4.21 0 0 0-1.238-2.982l-9.581-9.54c-1.482-1.476-3.881-1.473-5.36.005a3.78 3.78 0 0 0 0 5.351l6.471 6.466a1 1 0 0 1 0 1.445l-6.384 6.379a3.78 3.78 0 0 0 0 5.351z" fill="url(#C)"/><path d="M35.089 43.352a8.29 8.29 0 0 0 8.293-8.286 8.29 8.29 0 1 0-16.585 0 8.29 8.29 0 0 0 8.292 8.286z" fill="url(#D)"/></g><defs><linearGradient id="A" x1="3223.5" y1="0" x2="6142.12" y2="1782.35" gradientUnits="userSpaceOnUse"><stop stop-color="#4285eb"/><stop offset="1" stop-color="#2ec7ff"/></linearGradient><linearGradient id="B" x1="3614.98" y1="0" x2="2173.47" y2="7450.21" gradientUnits="userSpaceOnUse"><stop stop-color="#29cdff"/><stop offset=".379" stop-color="#148eff"/><stop offset="1" stop-color="#0a60ff"/></linearGradient><linearGradient id="C" x1="1257.47" y1="-331.6" x2="-618.19" y2="2601.73" gradientUnits="userSpaceOnUse"><stop stop-color="#fa816e"/><stop offset=".415" stop-color="#f74a5c"/><stop offset="1" stop-color="#f51d2c"/></linearGradient><linearGradient id="D" x1="1156.71" y1="-564.67" x2="532.616" y2="1931.79" gradientUnits="userSpaceOnUse"><stop stop-color="#fa8e7d"/><stop offset=".513" stop-color="#f74a5c"/><stop offset="1" stop-color="#f51d2c"/></linearGradient><clipPath id="E"><path fill="#fff" d="M0 0h70v70H0z"/></clipPath></defs></svg>
